actions/symbolic/system-shutdown-symbolic.svg

<?xml version="1.0" encoding="UTF-8" standalone="no"?>
<svg
   height="16"
   width="16"
   version="1.1"
   id="svg1"
   xmlns="http://www.w3.org/2000/svg"
   xmlns:svg="http://www.w3.org/2000/svg">
  <defs
     id="defs1" />
  <path
     id="path6-4"
     style="fill:#555761;fill-opacity:1;stroke-width:4;stroke-linecap:round;stroke-linejoin:round;-inkscape-stroke:none"
     d="M 7.75,1 C 7.3345,1 7,1.3345004 7,1.75 v 4.5 C 7,6.6654996 7.3345,7 7.75,7 h 0.5 C 8.6655,7 9,6.6654996 9,6.25 V 1.75 C 9,1.3345004 8.6655,1 8.25,1 Z M 4.78125,3.0898438 C 4.640696,3.0853438 4.49874,3.1250238 4.375,3.21875 2.648488,4.5264813 1.760425,6.6728413 2.056641,8.8183594 c 0.05662,0.4100874 0.230773,1.0618653 0.386718,1.4453126 0.816086,2.006626 2.659167,3.420197 4.808594,3.689453 0.410767,0.05146 1.085358,0.05145 1.496094,0 2.149432,-0.269236 3.99249,-1.682837 4.808594,-3.689453 C 13.712602,9.8801972 13.886742,9.2284148 13.943359,8.8183594 14.239596,6.6728412 13.351497,4.5264962 11.625,3.21875 c -0.329997,-0.2499585 -0.792926,-0.1224101 -1,0.2363281 l -0.25,0.4316407 c -0.207074,0.3587382 -0.07705,0.8140559 0.236328,1.0839843 0.68486,0.5898949 1.149656,1.3952006 1.31836,2.2832031 0.0772,0.4063421 0.07664,1.0857364 0,1.4921876 -0.303785,1.6111372 -1.572477,2.8797512 -3.183594,3.1835942 -0.406528,0.07667 -1.085736,0.07663 -1.492188,0 C 5.642769,11.625903 4.374155,10.357211 4.070312,8.7460938 3.993642,8.3395663 3.994282,7.6600875 4.072312,7.2539062 4.242584,6.3674563 4.708033,5.564882 5.392624,4.9765625 5.706315,4.7069857 5.836107,4.2512697 5.628952,3.8925781 l -0.253906,-0.4375 C 5.245574,3.2308959 5.015553,3.0973467 4.781296,3.0898438 Z" />
</svg>

<svg
        xmlns='http://www.w3.org/2000/svg'
        xmlns:svg='http://www.w3.org/2000/svg'
        id='svg1'
        width='16'
        height='16'>
  <path
          id='path6-4'
          fill='url(#gpa:foreground) #555761'
          fill-opacity='1'
          fill-rule='nonzero'
          stroke-width='4'
          stroke-linecap='round'
          stroke-linejoin='round'
          d='M 7.75 1 C 7.3345 1, 7 1.3345, 7 1.75 L 7 6.25 C 7 6.6655, 7.3345 7, 7.75 7 L 8.25 7 C 8.6655 7, 9 6.6655, 9 6.25 L 9 1.75 C 9 1.3345, 8.6655 1, 8.25 1 Z M 4.78125 3.08984 C 4.6407 3.08534, 4.49874 3.12502, 4.375 3.21875 C 2.64849 4.52648, 1.76042 6.67284, 2.05664 8.81836 C 2.11326 9.22845, 2.28741 9.88022, 2.44336 10.2637 C 3.25944 12.2703, 5.10253 13.6839, 7.25195 13.9531 C 7.66272 14.0046, 8.33731 14.0046, 8.74805 13.9531 C 10.8975 13.6839, 12.7405 12.2703, 13.5566 10.2637 C 13.7126 9.8802, 13.8867 9.22841, 13.9434 8.81836 C 14.2396 6.67284, 13.3515 4.5265, 11.625 3.21875 C 11.295 2.96879, 10.8321 3.09634, 10.625 3.45508 L 10.375 3.88672 C 10.1679 4.24546, 10.2979 4.70077, 10.6113 4.9707 C 11.2962 5.5606, 11.761 6.3659, 11.9297 7.25391 C 12.0069 7.66025, 12.0063 8.33964, 11.9297 8.74609 C 11.6259 10.3572, 10.3572 11.6258, 8.74609 11.9297 C 8.33957 12.0064, 7.66036 12.0063, 7.25391 11.9297 C 5.64277 11.6259, 4.37416 10.3572, 4.07031 8.74609 C 3.99364 8.33957, 3.99428 7.66009, 4.07231 7.25391 C 4.24258 6.36746, 4.70803 5.56488, 5.39262 4.97656 C 5.70632 4.70699, 5.83611 4.25127, 5.62895 3.89258 L 5.37505 3.45508 C 5.24557 3.2309, 5.01555 3.09735, 4.7813 3.08984 Z'
          class="foreground">
  </path>
</svg>
